icons/24x24_template_outline.svg

<svg xmlns="http://www.w3.org/2000/svg" width="24" height="24" viewBox="0 0 24 24">
  <path fill-rule="evenodd" d="M10,19 L19,19 L19,11 L10,11 L10,19 Z M8,19 L8,11 L5,11 L5,9 L19,9 L19,5 L5,5 L5,19 L8,19 Z M5,3 L19,3 C20.1045695,3 21,3.8954305 21,5 L21,19 C21,20.1045695 20.1045695,21 19,21 L5,21 C3.8954305,21 3,20.1045695 3,19 L3,5 C3,3.8954305 3.8954305,3 5,3 Z"/>
</svg>

<svg width="24" height="24" fill="none" xmlns="http://www.w3.org/2000/svg"><path fill-rule="evenodd" clip-rule="evenodd" d="M10 19h9v-8h-9v8Zm-2 0v-8H5V9h14V5H5v14h3ZM5 3h14a2 2 0 0 1 2 2v14a2 2 0 0 1-2 2H5a2 2 0 0 1-2-2V5a2 2 0 0 1 2-2Z" fill="#000"/></svg>
